X: 219
T:Ecce video celos apertos
N: Derived from Jos1902-Ecce_video_celos_apertos.krn
C: Josquin des Prez
%%abc-version 2.0
%%abcx-abcm2ps-target-version 5.9.1 (29 Sep 2008)
%%abc-creator hum2abc beta
%%abcx-conversion-date 2019/02/12 16:15:49
%%abc-edited-by Jesse Rodin
%%abc-edited-by Chris Gage 05-30-2012
%%abcx-initial-encoding-date 2012/05/30/
%%humdrum-veritas 2850132206
%%humdrum-veritas-data 1289804247
%%linebreak <none>
%%barnumbers 0
L: 1/4
M: 2/1
Q: 1/2=120
V: 1 clef=treble
V: 2 clef=treble-8
V: 3 clef=bass
K: C
[V:1] E4B4 | 
[V:2] z8 | 
[V:3] z8 | 
[V:1] c4B4 | 
[V:2] A4e4 | 
[V:3] z8 | 
[V:1] A2c4B2 | 
[V:2] f4e2d2 | 
[V:3] z8 | 
[V:1] A2c3BB2- | 
[V:2] f4e2d2- | 
[V:3] z8 | 
[V:1] BA^G^FG4 | 
[V:2] dcBAB4 | 
[V:3] A,,4E,4 | 
[V:1] A4z4 | 
[V:2] A2c4B2 | 
[V:3] F,4E,2D,2 | 
[V:1] z8 | 
[V:2] A2c3BB2- | 
[V:3] F,4E,2D,2- | 
[V:1] z8 | 
[V:2] BA^G^F^G4 | 
[V:3] D,C,B,,A,,B,,4 | 
[V:1] E4B4 | 
[V:2] A4z4 | 
[V:3] A,,4z4 | 
[V:1] c4B4 | 
[V:2] A4e4 | 
[V:3] z8 | 
[V:1] A2c4BA | 
[V:2] f4e4- | 
[V:3] z4A,,4 | 
[V:1] G2c4B2- | 
[V:2] e8 | 
[V:3] E,2A,4G,2- | 
[V:1] BAd3cBA | 
[V:2] d8 | 
[V:3] G,F,D,E,F,4 | 
[V:1] G2B3Ac2 | 
[V:2] e4B2e2- | 
[V:3] E,8- | 
[V:1] B2e3dc2 | 
[V:2] edg3fe2 | 
[V:3] E,8 | 
[V:1] B2c4B2 | 
[V:2] d2c2d4 | 
[V:3] z4G,4 | 
[V:1] c4z4 | 
[V:2] c4d4 | 
[V:3] A,4F,2G,2- | 
[V:1] z8 | 
[V:2] e4c2d2- | 
[V:3] G,2E,2F,4 | 
[V:1] z8 | 
[V:2] dcBAB4 | 
[V:3] D,8 | 
[V:1] z2c2B2A2 | 
[V:2] c4z2f2 | 
[V:3] C,4z4 | 
[V:1] G2A2E2F2 | 
[V:2] e2d2c2d2 | 
[V:3] z2F,2E,2D,2 | 
[V:1] E2z2z2c2 | 
[V:2] A4z4 | 
[V:3] C,2D,2A,,4 | 
[V:1] B2A2G2A2 | 
[V:2] z2f2e2d2 | 
[V:3] z4z2F,2 | 
[V:1] E2F2E2F2- | 
[V:2] c2d2A4- | 
[V:3] E,2D,2C,2D,2 | 
[V:1] FEE4D2 | 
[V:2] A2G2F4 | 
[V:3] A,,2C,2D,4 | 
[V:1] E8- | 
[V:2] E2c4B2 | 
[V:3] A,,2A,4G,2 | 
[V:1] E8- | 
[V:2] A4G2c2- | 
[V:3] A,4E,2A,2- | 
[V:1] E8 | 
[V:2] cBA2G2c2 | 
[V:3] A,G,A,2E,4 | 
[V:1] z4B4 | 
[V:2] B2A4^G2 | 
[V:3] D,2C,2B,,4 | 
[V:1] c2c3BcB | 
[V:2] A2e3de2 | 
[V:3] A,,4A,3G, | 
[V:1] c2A2G4 | 
[V:2] c2d2B2e2- | 
[V:3] A,2F,2G,2E,2 | 
[V:1] z2E4F2 | 
[V:2] ede2c2d2 | 
[V:3] A,3G,A,2F,2 | 
[V:1] D2G2z2c2- | 
[V:2] B2e3de2 | 
[V:3] G,2E,2A,3G, | 
[V:1] cBA4^G2 | 
[V:2] c2d2B4 | 
[V:3] A,2D,2E,4 | 
[V:1] A3G/F/EDF2- | 
[V:2] A4z2A2 | 
[V:3] A,,8 | 
[V:1] FEE4D2 | 
[V:2] e4f4 | 
[V:3] z8 | 
[V:1] E4z2E2 | 
[V:2] e4e3f | 
[V:3] A,8 | 
[V:1] B2B3cd2- | 
[V:2] g3dd3e | 
[V:3] G,8 | 
[V:1] dAA3Bc2- | 
[V:2] f3cc3d | 
[V:3] F,8 | 
[V:1] cGG3AB2 | 
[V:2] e2B2B4 | 
[V:3] E,8- | 
[V:1] E3FGEG2- | 
[V:2] z2c3de2 | 
[V:3] E,8 | 
[V:1] GABGc2B2- | 
[V:2] c2B2e4 | 
[V:3] z8 | 
[V:1] BAA4^G2 | 
[V:2] d2c2B4 | 
[V:3] A,,4E,4 | 
[V:1] A4z4 | 
[V:2] A4z2E2 | 
[V:3] F,4E,2C,2 | 
[V:1] z4E4 | 
[V:2] B4c4 | 
[V:3] D,4C,4 | 
[V:1] B4c4 | 
[V:2] B2G2A4 | 
[V:3] z4A,,4 | 
[V:1] B2G2A4 | 
[V:2] G2B4A2 | 
[V:3] E,4F,4 | 
[V:1] G2B4A2 | 
[V:2] B4c4 | 
[V:3] E,4z2A,,2 | 
[V:1] B2c4BA | 
[V:2] B2e4d2 | 
[V:3] E,4F,4 | 
[V:1] G2c2B2A2 | 
[V:2] e4z2c2 | 
[V:3] E,2A,,2E,2F,2 | 
[V:1] G2A2E2D2 | 
[V:2] B2A2G2A2 | 
[V:3] G,2D,2E,2F,2 | 
[V:1] E2F3EE2- | 
[V:2] B2c3BB2- | 
[V:3] E,2A,3E,G,2 | 
[V:1] E2D2E2B2- | 
[V:2] B2A2B4 | 
[V:3] F,4E,4- | 
[V:1] B2G2A2B2 | 
[V:2] e4c2d2 | 
[V:3] E,4z4 | 
[V:1] G2c4A2 | 
[V:2] e2A3Bc2 | 
[V:3] z4z2A,,2 | 
[V:1] B2c2A4 | 
[V:2] B2e4d2 | 
[V:3] E,4F,4 | 
[V:1] G2c4A2 | 
[V:2] e4c4 | 
[V:3] E,4F,4- | 
[V:1] c2A2d3c | 
[V:2] z2f2d2f2 | 
[V:3] F,8 | 
[V:1] B3AG2c2- | 
[V:2] d2g3fe2 | 
[V:3] G,8- | 
[V:1] c2B2c4 | 
[V:2] d4z2c2- | 
[V:3] G,4A,4 | 
[V:1] z8 | 
[V:2] c2A2c2A2 | 
[V:3] F,4z2F,2 | 
[V:1] z8 | 
[V:2] d3cB3A | 
[V:3] D,2F,2D,2G,2- | 
[V:1] z4z2d2 | 
[V:2] G2c4B2 | 
[V:3] G,F,E,2D,4 | 
[V:1] e4c2d2- | 
[V:2] c4z2f2 | 
[V:3] C,4z4 | 
[V:1] d2B2c4 | 
[V:2] g4e2f2- | 
[V:3] z2G,2A,4 | 
[V:1] A2B3Gc2- | 
[V:2] f2d2e4 | 
[V:3] F,2G,4E,2 | 
[V:1] cBAGF2G2- | 
[V:2] c2d4B2 | 
[V:3] F,4D,2E,2- | 
[V:1] GEA4^G2 | 
[V:2] c2A2B4 | 
[V:3] E,2C,2D,2E,2 | 
[V:1] A4z2E2 | 
[V:2] A4z2G2 | 
[V:3] F,4E,4 | 
[V:1] F2G4FE | 
[V:2] A2B2c4 | 
[V:3] z2E,4F,2 | 
[V:1] D4z2d2- | 
[V:2] B2G2g4 | 
[V:3] G,6F,E, | 
[V:1] d2c2B2d2- | 
[V:2] f2e2g4 | 
[V:3] D,2A,2G,3A, | 
[V:1] d2c2B4 | 
[V:2] f2e4d2 | 
[V:3] B,2C2G,4 | 
[V:1] A2c2B2A2 | 
[V:2] f2e2d2f2- | 
[V:3] z8 | 
[V:1] c4B2A2- | 
[V:2] f2e2d2c2- | 
[V:3] z8 | 
[V:1] AGG4F2 | 
[V:2] cGB2A2d2 | 
[V:3] z4D,4 | 
[V:1] G4E4 | 
[V:2] B4c4 | 
[V:3] E,4z4 | 
[V:1] z2G2A2c2 | 
[V:2] z4c4 | 
[V:3] E,4F,4 | 
[V:1] B2d3cA2 | 
[V:2] d4z4 | 
[V:3] z4F,4 | 
[V:1] B2d2c4 | 
[V:2] d4e4 | 
[V:3] G,4z4 | 
[V:1] B4z4 | 
[V:2] d2e4dc | 
[V:3] G,4A,4 | 
[V:1] z8 | 
[V:2] B2c3Ad2- | 
[V:3] G,2A,4G,F, | 
[V:1] z4A4- | 
[V:2] d2^c2d4 | 
[V:3] E,4D,4 | 
[V:1] A8 | 
[V:2] c2d2z2d2 | 
[V:3] z2D,2C,2D,2 | 
[V:1] A8 | 
[V:2] c2A4c2 | 
[V:3] z2D,2C,2A,,2 | 
[V:1] G4A2A2- | 
[V:2] B4A4 | 
[V:3] E,4F,4 | 
[V:1] AGG3DF2 | 
[V:2] z2B4A2 | 
[V:3] E,4z4 | 
[V:1] E2A4G2 | 
[V:2] c4B4 | 
[V:3] z2A,,2E,4 | 
[V:1] A2G2z2c2- | 
[V:2] z2B4A2 | 
[V:3] F,2E,2F,4 | 
[V:1] c2BAG4 | 
[V:2] c4B4 | 
[V:3] E,8- | 
[V:1] c2B3Ac2 | 
[V:2] z4z2e2- | 
[V:3] E,8 | 
[V:1] B2d3cc2- | 
[V:2] e2d2f4 | 
[V:3] z4z2A,,2- | 
[V:1] cBB2A2G2 | 
[V:2] e4z2e2- | 
[V:3] A,,2E,2F,2G,2- | 
[V:1] B4A2c2- | 
[V:2] e2d2f4 | 
[V:3] G,4A,4- | 
[V:1] c2B2G3A | 
[V:2] e4z2e2- | 
[V:3] A,2E,6 | 
[V:1] B4z4 | 
[V:2] e2d2B2c2 | 
[V:3] z4E,4 | 
[V:1] z2A4G2 | 
[V:2] d4z2e2- | 
[V:3] D,2F,4E,2 | 
[V:1] E2F2G4 | 
[V:2] e2d2B2c2 | 
[V:3] C,2D,2E,4 | 
[V:1] z2A4G2 | 
[V:2] d4z2e2- | 
[V:3] D,2F,4E,2 | 
[V:1] E2F2G4 | 
[V:2] e2d2B2c2- | 
[V:3] C,2D,2E,4 | 
[V:1] z2c3BA2 | 
[V:2] cBA2G2F2 | 
[V:3] A,,3B,,C,2D,2 | 
[V:1] G2A4^G2 | 
[V:2] E2A2B4 | 
[V:3] E,2F,2D,2E,2 | 
[V:1] A4G2c2 | 
[V:2] A4z2A2 | 
[V:3] F,4E,2F,2 | 
[V:1] B2A2G2A2 | 
[V:2] G2c2B2A2 | 
[V:3] G,2A,2E,2F,2 | 
[V:1] E2F2G2A2 | 
[V:2] G2A2E2A2 | 
[V:3] G,2D,2C,2F,2 | 
[V:1] E2A4^G2 | 
[V:2] c2d2B4 | 
[V:3] E,2D,2E,4 | 
[V:1] A8 |]  
[V:2] A8 |]  
[V:3] A,,8 |]  



